X: 3
T: Holevalsen
O: Trad Fyn, Denmark
N: from handwritten MS "efter Harald Haugaard"
R: waltz
M: 3/4
L: 1/8
K: A
E>E \
| "A"uE2 c2 A2 | E2 e2 c2 | A2 a2 e2 | (dc) (BA) GF \
| "E7"E2 b2 g2 | "D"a2 fd f2- | "E7"e2 EG Bc | "A"A4 :|
|: (ued) \
| "A"(cB c)E Ac | "E7"d2 B2 (udc) | (BA B)E Ac | "A"e2 c2 (ued) \
| (cB c)E Ac | "E7"d2 B2 (udc) | (BA B)E GB | "A"A4 :|
|: (.e>.e) \
| "A"e2 (cd) ef | e2 (ce) ac' | "E7"b2 (ba) bc' | "A"a2 c'a e2 \
| "A"e2 (cd) ef | e2 (fe) dc | "E7"B2 (BA) Bc | "A"A4 :|
